src/status/symbolic/bluetooth-disconnected-symbolic.svg

<?xml version="1.0" encoding="UTF-8" standalone="no"?>
<svg
   width="16"
   height="16"
   version="1.1"
   id="svg2"
   sodipodi:docname="bluetooth-disconnected-symbolic.svg"
   inkscape:version="1.3.2 (091e20ef0f, 2023-11-25)"
   xmlns:inkscape="http://www.inkscape.org/namespaces/inkscape"
   xmlns:sodipodi="http://sodipodi.sourceforge.net/DTD/sodipodi-0.dtd"
   xmlns="http://www.w3.org/2000/svg"
   xmlns:svg="http://www.w3.org/2000/svg">
  <defs
     id="defs2" />
  <sodipodi:namedview
     id="namedview2"
     pagecolor="#ffffff"
     bordercolor="#111111"
     borderopacity="1"
     inkscape:showpageshadow="0"
     inkscape:pageopacity="0"
     inkscape:pagecheckerboard="1"
     inkscape:deskcolor="#d1d1d1"
     inkscape:zoom="50.1875"
     inkscape:cx="8"
     inkscape:cy="8"
     inkscape:window-width="1920"
     inkscape:window-height="1011"
     inkscape:window-x="0"
     inkscape:window-y="0"
     inkscape:window-maximized="1"
     inkscape:current-layer="svg2" />
  <path
     d="m12.5 9c-1.933 0-3.5 1.567-3.5 3.5s1.567 3.5 3.5 3.5 3.5-1.567 3.5-3.5-1.567-3.5-3.5-3.5zm-1.4141 1.5859c0.12781 0 0.25558 0.04855 0.35352 0.14648l1.0605 1.0605 1.0605-1.0605c0.19587-0.19587 0.51116-0.19587 0.70703 0s0.19587 0.51116 0 0.70703l-1.0605 1.0605 1.0605 1.0605c0.19587 0.19587 0.19587 0.51116 0 0.70703s-0.51116 0.19587-0.70703 0l-1.0605-1.0605-1.0605 1.0605c-0.19587 0.19587-0.51116 0.19587-0.70703 0s-0.19587-0.51116 0-0.70703l1.0605-1.0605-1.0605-1.0605c-0.19587-0.19587-0.19587-0.51116 0-0.70703 0.09793-0.09793 0.22571-0.14648 0.35352-0.14648z"
     fill="#363636"
     id="path1" />
  <path
     d="M 7.406174,9.145307e-5 A 0.57163884,0.57163884 0 0 0 7.19406,0.04921204 0.57163884,0.57163884 0 0 0 6.8569183,0.56944283 V 6.6112899 L 3.7310523,4.6576237 a 0.57158168,0.57158168 0 0 0 -0.7881539,0.1808484 0.57158168,0.57158168 0 0 0 0.1808484,0.788154 l 3.7331143,2.3331964 v 0.080378 L 3.1237468,10.373397 A 0.57158168,0.57158168 0 0 0 2.9428984,11.161551 0.57158168,0.57158168 0 0 0 3.7310523,11.3424 L 6.8569183,9.3887333 V 15.43058 a 0.57163884,0.57163884 0 0 0 0.9511462,0.426457 l 0.6541981,-0.58275 A 5.1442352,5.1442352 0 0 1 8.0938553,14.073051 l -0.093775,0.08484 V 13.14423 8.6742322 L 9.4513264,9.5807265 A 5.1442352,5.1442352 0 0 1 10.375677,8.8104287 L 9.0784151,7.9999487 12.876347,5.6265129 a 0.57163884,0.57163884 0 0 0 0.07591,-0.910964 L 7.8080245,0.14289542 A 0.57163884,0.57163884 0 0 0 7.406134,0 Z M 8.0000816,1.8420706 11.623795,5.0616759 8.0000816,7.325711 Z"
     fill="#363636"
     id="path2"
     style="stroke-width:1.14316" />
</svg>

<?xml version="1.0" encoding="UTF-8"?>
<svg id="svg2" width="16" height="16" version="1.1" xmlns="http://www.w3.org/2000/svg">
 <path id="path1" d="m12.5 9c-1.933 0-3.5 1.567-3.5 3.5s1.567 3.5 3.5 3.5 3.5-1.567 3.5-3.5-1.567-3.5-3.5-3.5zm-1.4141 1.5859c0.12781 0 0.25558 0.04855 0.35352 0.14648l1.0605 1.0605 1.0605-1.0605c0.19587-0.19587 0.51116-0.19587 0.70703 0s0.19587 0.51116 0 0.70703l-1.0605 1.0605 1.0605 1.0605c0.19587 0.19587 0.19587 0.51116 0 0.70703s-0.51116 0.19587-0.70703 0l-1.0605-1.0605-1.0605 1.0605c-0.19587 0.19587-0.51116 0.19587-0.70703 0s-0.19587-0.51116 0-0.70703l1.0605-1.0605-1.0605-1.0605c-0.19587-0.19587-0.19587-0.51116 0-0.70703 0.09793-0.09793 0.22571-0.14648 0.35352-0.14648z" fill="#363636"/>
 <path id="path2" d="m7.4062 9.1453e-5a0.57164 0.57164 0 0 0-0.21211 0.049121 0.57164 0.57164 0 0 0-0.33714 0.52023v6.0418l-3.1259-1.9537a0.57158 0.57158 0 0 0-0.78815 0.18085 0.57158 0.57158 0 0 0 0.18085 0.78815l3.7331 2.3332v0.080378l-3.7331 2.3332a0.57158 0.57158 0 0 0-0.18085 0.78815 0.57158 0.57158 0 0 0 0.78815 0.18085l3.1259-1.9537v6.0418a0.57164 0.57164 0 0 0 0.95115 0.42646l0.6542-0.58275a5.1442 5.1442 0 0 1-0.36841-1.2012l-0.093775 0.08484v-5.4837l1.4512 0.90649a5.1442 5.1442 0 0 1 0.92435-0.7703l-1.2973-0.81048 3.7979-2.3734a0.57164 0.57164 0 0 0 0.07591-0.91096l-5.1442-4.5727a0.57164 0.57164 0 0 0-0.40189-0.1429zm0.59391 1.842 3.6237 3.2196-3.6237 2.264z" fill="#363636" stroke-width="1.1432"/>
</svg>
